images_sukapura_svg/cmd/lc_distributecolumns.svg

<svg viewBox="0 0 24 24" xmlns="http://www.w3.org/2000/svg" xmlns:xlink="http://www.w3.org/1999/xlink"><linearGradient id="a" gradientTransform="matrix(0 1 -1 0 24.007116 3.00647)" gradientUnits="userSpaceOnUse" x1="15.993529" x2="8.993529" y1="2.998986" y2="2.998986"><stop offset="0" stop-color="#0040dd"/><stop offset="1" stop-color="#0a84ff"/></linearGradient><path d="m3 3v18h6v-18z" fill="#fff"/><path d="m2 2v1 3 15c0 .554.446 1 1 1h6v-1-3-1-3-1-3-1-3-4h-6zm1 1h5v2 1 3 1 3 1 3 1 3h-5v-3-1-3-1-3-1-3-1z" fill="#808080"/><path d="m10 3v18h7v-4.003906l-1.478516.002c-.420168.005895-.867654-.184805-1.138672-.486375-.271015-.30157-.382812-.664225-.382812-1.013672 0-.349448.111796-.714049.382812-1.015625.271018-.30157.718504-.490275 1.138672-.484375l1.478516-.001953v-10.996094z" fill="#fff"/><path d="m10 2v1h6v2 1 3 1 3 .998047l1-.001953v-.996094-3-1-3-4zm7 14.996094-1 .001953v.001953 1 3h-6v1h7v-1-3-1z" fill="#808080"/><path d="m10 5v1h6v-1zm0 4v1h6v-1zm0 4v1h6v-1zm0 4v1h6v-1z" fill="#bababa"/><path d="m3 5v1h5v-1zm0 4v1h5v-1zm0 4v1h5v-1zm0 4v1h5v-1z" fill="#bababa"/><g fill-rule="evenodd"><path d="m15.501953 12.988281c-.822006-.001516-1.513672.691953-1.513672 1.511719v1.003906.996094c0 .819766.692258 1.510205 1.509766 1.511719l1.501953.001953v-5.023438z" fill="#fff" fill-opacity=".784314"/><path d="m23.007116 15.484986c-.0024-.156011-.0775-.301958-.203125-.394532l-2.949219-2.943359c-.340526-.338253-.91584-.04927-.847656.425781v1.433594l-3.507116-.00647c-.276999-.000511-.5.223-.5.5v1.003906.996094c0 .277.223001.499487.5.5l3.507116.0065v1.394531c-.09891.489701.50302.805196.849609.445313l2.955079-2.957032c.125432-.09627.197873-.246222.195312-.404296z" fill="url(#a)"/></g></svg>

<?xml version="1.0" encoding="UTF-8" standalone="no"?>
<svg
   xmlns:dc="http://purl.org/dc/elements/1.1/"
   xmlns:cc="http://creativecommons.org/ns#"
   xmlns:rdf="http://www.w3.org/1999/02/22-rdf-syntax-ns#"
   xmlns:svg="http://www.w3.org/2000/svg"
   xmlns="http://www.w3.org/2000/svg"
   xmlns:xlink="http://www.w3.org/1999/xlink"
   xmlns:sodipodi="http://sodipodi.sourceforge.net/DTD/sodipodi-0.dtd"
   xmlns:inkscape="http://www.inkscape.org/namespaces/inkscape"
   viewBox="0 0 24 24"
   version="1.1"
   id="svg12"
   sodipodi:docname="lc_distributecolumns.svg"
   inkscape:version="0.92.3 (unknown)"
   inkscape:export-filename="/home/rizmut/Dokumen/Rizmut/Github/libreoffice-style-sukapura/images_sukapura/cmd/lc_setoptimalcolumnwidth.png"
   inkscape:export-xdpi="96"
   inkscape:export-ydpi="96">
  <metadata
     id="metadata18">
    <rdf:RDF>
      <cc:Work
         rdf:about="">
        <dc:format>image/svg+xml</dc:format>
        <dc:type
           rdf:resource="http://purl.org/dc/dcmitype/StillImage" />
        <dc:title></dc:title>
      </cc:Work>
    </rdf:RDF>
  </metadata>
  <defs
     id="defs16">
    <linearGradient
       gradientTransform="translate(75,-7)"
       id="a-367"
       gradientUnits="userSpaceOnUse"
       x1="14"
       x2="13.79661"
       y1="22"
       y2="2.1355929">
      <stop
         offset="0"
         stop-color="#0040dd"
         id="stop2206" />
      <stop
         offset="1"
         stop-color="#0a84ff"
         id="stop2208" />
    </linearGradient>
    <linearGradient
       inkscape:collect="always"
       xlink:href="#a-367"
       id="linearGradient879"
       x1="15.993529"
       y1="2.9989855"
       x2="8.9935293"
       y2="2.9989855"
       gradientUnits="userSpaceOnUse"
       gradientTransform="rotate(90,10.500323,13.506793)" />
  </defs>
  <sodipodi:namedview
     pagecolor="#ffffff"
     bordercolor="#666666"
     borderopacity="1"
     objecttolerance="10"
     gridtolerance="10"
     guidetolerance="10"
     inkscape:pageopacity="0"
     inkscape:pageshadow="2"
     inkscape:window-width="1366"
     inkscape:window-height="706"
     id="namedview14"
     showgrid="true"
     inkscape:snap-smooth-nodes="true"
     inkscape:zoom="9.8333331"
     inkscape:cx="21.534258"
     inkscape:cy="-0.50946817"
     inkscape:window-x="0"
     inkscape:window-y="0"
     inkscape:window-maximized="1"
     inkscape:current-layer="g844"
     inkscape:snap-global="true">
    <inkscape:grid
       type="xygrid"
       id="grid828"
       spacingx="0.5"
       spacingy="0.5"
       empspacing="2" />
  </sodipodi:namedview>
  <g
     id="g844">
    <path
       id="path2-3"
       d="M 3,3 V 21 H 9 V 3 Z"
       style="fill:#ffffff"
       inkscape:connector-curvature="0"
       sodipodi:nodetypes="ccccc" />
    <path
       style="fill:#808080"
       d="M 2 2 L 2 3 L 2 6 L 2 21 C 2 21.554 2.446 22 3 22 L 9 22 L 9 21 L 9 18 L 9 17 L 9 14 L 9 13 L 9 10 L 9 9 L 9 6 L 9 2 L 3 2 L 2 2 z M 3 3 L 8 3 L 8 5 L 8 6 L 8 9 L 8 10 L 8 13 L 8 14 L 8 17 L 8 18 L 8 21 L 3 21 L 3 18 L 3 17 L 3 14 L 3 13 L 3 10 L 3 9 L 3 6 L 3 5 L 3 3 z "
       id="path4-6" />
    <path
       id="path6"
       d="m 10,3 v 18 h 7 v -4.003906 l -1.478516,0.002 C 15.101316,17.003989 14.65383,16.813289 14.382812,16.511719 14.111797,16.210149 14,15.847494 14,15.498047 c 0,-0.349448 0.111796,-0.714049 0.382812,-1.015625 0.271018,-0.30157 0.718504,-0.490275 1.138672,-0.484375 L 17,13.996094 V 3 Z"
       style="fill:#ffffff"
       inkscape:connector-curvature="0"
       sodipodi:nodetypes="ccccccsccccc" />
    <path
       style="fill:#808080"
       d="M 10 2 L 10 3 L 16 3 L 16 5 L 16 6 L 16 9 L 16 10 L 16 13 L 16 13.998047 L 17 13.996094 L 17 13 L 17 10 L 17 9 L 17 6 L 17 2 L 10 2 z M 17 16.996094 L 16 16.998047 L 16 17 L 16 18 L 16 21 L 10 21 L 10 22 L 17 22 L 17 21 L 17 18 L 17 17 L 17 16.996094 z "
       id="path8" />
    <path
       style="fill:#bababa;fill-opacity:1;stroke:none"
       d="M 10 5 L 10 6 L 16 6 L 16 5 L 10 5 z M 10 9 L 10 10 L 16 10 L 16 9 L 10 9 z M 10 13 L 10 14 L 16 14 L 16 13 L 10 13 z M 10 17 L 10 18 L 16 18 L 16 17 L 10 17 z "
       id="rect891" />
    <path
       id="path900"
       d="M 3,5 V 6 H 8 V 5 Z m 0,4 v 1 H 8 V 9 Z m 0,4 v 1 h 5 v -1 z m 0,4 v 1 h 5 v -1 z"
       style="fill:#bababa;fill-opacity:1;stroke:none"
       inkscape:connector-curvature="0"
       sodipodi:nodetypes="cccccccccccccccccccc" />
    <path
       style="fill:#ffffff;fill-opacity:0.78431374;fill-rule:evenodd"
       d="M 15.501953 12.988281 C 14.679947 12.986765 13.988281 13.680234 13.988281 14.5 L 13.988281 15.503906 L 13.988281 16.5 C 13.988281 17.319766 14.680539 18.010205 15.498047 18.011719 L 17 18.013672 L 17 12.990234 L 15.501953 12.988281 z "
       id="path908" />
    <path
       style="fill:url(#linearGradient879);fill-opacity:1;fill-rule:evenodd"
       id="path8-5"
       d="m 23.007116,15.484986 c -0.0024,-0.156011 -0.0775,-0.301958 -0.203125,-0.394532 l -2.949219,-2.943359 c -0.340526,-0.338253 -0.91584,-0.04927 -0.847656,0.425781 V 14.00647 L 15.5,14 C 15.223001,13.999489 15,14.223 15,14.5 V 15.503906 16.5 c 0,0.277 0.223001,0.499487 0.5,0.5 l 3.507116,0.0065 v 1.394531 c -0.09891,0.489701 0.50302,0.805196 0.849609,0.445313 l 2.955079,-2.957032 c 0.125432,-0.09627 0.197873,-0.246222 0.195312,-0.404296 z"
       inkscape:connector-curvature="0"
       sodipodi:nodetypes="cccccsscsscccccc" />
  </g>
</svg>
